X: 6444
T: Castleconnell Lasses, The
R: reel
M: 4/4
K: Dmajor
d2fd adfd|d2fd ecAc|d2fd adfd|ecAc cBBc|
d2fd adfd|d2fd ecAc|defg ~a2af|ecAc cB~B2||
fBdB fBdB|ABcd ecAe|fBdB fBdB|ecAc cB~B2|
fBdB fBdB|ABcd ecAc|d3B ceaf|ecAc cB~B2||

